X: 491
T: Da xinchui
L: 1/8
M: 2/4
K: G
Bd2e [I:setbarnb 1]| 
d2A2 | 
Bd2A | 
G E G A | 
Bd2B | 
A2d d | 
e d/ e/ c B/ A/ | 
GA2E | 
D4 |]

@@@ Tune index: 9365
